static/logos/amplitude-wordmark-color.svg

<svg width="100" height="22" viewBox="0 0 100 22" fill="none" xmlns="http://www.w3.org/2000/svg">
<g clip-path="url(#clip0_1_3559)">
<path d="M9.18141 4.88165C9.16088 4.84715 9.13237 4.81811 9.09822 4.79698C9.06407 4.77584 9.02538 4.76322 8.98534 4.76025C8.93115 4.76287 8.87883 4.78104 8.83468 4.81266C8.2801 5.26549 7.52071 7.18689 6.89844 9.71833L7.44909 9.72532C8.5373 9.73755 9.66045 9.75108 10.7714 9.76899C10.4779 8.60916 10.2037 7.61528 9.94778 6.81353C9.76512 6.143 9.50809 5.49501 9.18141 4.88165Z" fill="#3260E7"/>
<path d="M10.4197 0C4.66507 0 0 4.85415 0 10.8419C0 16.8297 4.66507 21.683 10.4197 21.683C16.1742 21.683 20.8393 16.8293 20.8393 10.8419C20.8393 4.85458 16.1738 0 10.4197 0ZM17.91 11.038L17.9074 11.0406C17.8965 11.0493 17.8852 11.059 17.8729 11.0672L17.8616 11.076L17.8371 11.0908C17.8297 11.0957 17.8219 11.1003 17.814 11.1044C17.7356 11.1476 17.6476 11.1703 17.5581 11.1703H12.6201C12.6603 11.3402 12.7035 11.5336 12.7511 11.7441C13.0214 12.9603 13.7397 16.1908 14.5031 16.1908H14.5424C15.1393 16.1908 15.4432 15.2939 16.11 13.3288L16.1183 13.3044C16.2258 12.9886 16.3463 12.6328 16.4777 12.2563L16.5109 12.1598C16.5298 12.1077 16.5663 12.0638 16.6142 12.0359C16.6621 12.008 16.7183 11.9977 16.7729 12.007C16.8282 12.0184 16.8779 12.0485 16.9136 12.0923C16.9493 12.136 16.9689 12.1907 16.969 12.2472C16.969 12.2712 16.9656 12.2952 16.959 12.3183L16.931 12.4148C16.8616 12.6489 16.7878 12.9677 16.7022 13.3362C16.3048 15.0507 15.7039 17.6402 14.1633 17.6402H14.152C13.1568 17.6319 12.5624 15.976 12.3066 15.2686C11.8306 13.9467 11.4694 12.5371 11.1236 11.1729H6.5821L5.63886 14.3118L5.62445 14.3004C5.57114 14.3903 5.48943 14.46 5.39218 14.4983C5.29493 14.5367 5.18769 14.5416 5.08734 14.5122C4.98616 14.48 4.89795 14.4164 4.8355 14.3305C4.77301 14.2447 4.73965 14.1411 4.74017 14.0349V14.0179L4.79738 13.6629C4.92838 12.8563 5.08341 12.0179 5.26201 11.1712H3.34716L3.34017 11.1638C3.16908 11.1309 3.01452 11.0402 2.90244 10.9068C2.79037 10.7734 2.72762 10.6055 2.72476 10.4314C2.72189 10.2572 2.77907 10.0873 2.88669 9.95026C2.99431 9.81328 3.1458 9.71751 3.31572 9.67904C3.39009 9.67074 3.46493 9.66755 3.53974 9.66943H3.63319C4.24148 9.68035 4.88865 9.68996 5.59389 9.69913C6.59389 5.46594 7.75546 3.31441 9.0428 3.31004C10.4231 3.31004 11.4472 6.58122 12.2664 9.78079L12.2699 9.79389C13.9546 9.82926 15.7498 9.88122 17.4948 10.0122L17.5681 10.0192C17.5961 10.02 17.6239 10.0224 17.6515 10.0266H17.6751C17.7799 10.0498 17.8759 10.1024 17.9518 10.1783C18.0277 10.2542 18.0803 10.3502 18.1035 10.455C18.1281 10.5606 18.1231 10.6709 18.089 10.7738C18.0548 10.8767 17.9929 10.9681 17.91 11.038Z" fill="#3260E7"/>
<path d="M26.6238 13.5541L25.798 15.6781H23.3984L27.9639 4.58643H30.0832L34.6338 15.6781H32.2482L31.422 13.5541H26.6238ZM29.0067 7.39254L27.4487 11.4305H30.5963L29.0067 7.39254Z" fill="#3260E7"/>
<path d="M48.1545 11.4145V15.6782H45.9881V11.6083C45.9881 10.376 45.4122 9.7114 44.3982 9.7114C44.1109 9.72437 43.8314 9.81 43.5863 9.96031C43.3411 10.1106 43.138 10.3207 42.996 10.5708C43.0327 10.8504 43.0531 11.132 43.0571 11.414V15.6778H40.8929V11.6079C40.8929 10.3756 40.3157 9.71096 39.2877 9.71096C39.013 9.73965 38.7493 9.83397 38.5187 9.98598C38.2881 10.1379 38.0974 10.3432 37.9628 10.5843V15.676H35.7969V7.91183H37.9628V8.38258C38.2002 8.1379 38.4875 7.94729 38.8052 7.82375C39.1229 7.70026 39.4636 7.64672 39.8039 7.66686C40.2586 7.66017 40.709 7.75581 41.1218 7.94664C41.5345 8.13751 41.8991 8.41873 42.1886 8.76948C42.5354 8.40245 42.957 8.1141 43.4248 7.92389C43.8925 7.73371 44.396 7.64603 44.9004 7.66686C46.7209 7.66686 48.1545 9.14415 48.1545 11.4145Z" fill="#3260E7"/>
<path d="M57.6736 11.803C57.6736 14.0567 56.0216 15.8401 53.9648 15.8401C53.2124 15.8551 52.4731 15.6403 51.8456 15.2244V19.424H49.6797V7.91133H51.8456V8.36547C52.4731 7.94958 53.2124 7.73482 53.9648 7.74975C56.0234 7.74975 57.6736 9.517 57.6736 11.803ZM55.5395 11.803C55.5714 11.3583 55.4548 10.9155 55.2081 10.5441C54.9613 10.1728 54.598 9.89381 54.1758 9.75098C53.7535 9.60818 53.2954 9.60962 52.874 9.75504C52.4522 9.90045 52.091 10.1817 51.8465 10.5546V13.0362C52.043 13.3194 52.3068 13.5492 52.6142 13.7049C52.9216 13.8607 53.2627 13.9374 53.6072 13.9284C53.874 13.9166 54.1356 13.8521 54.3775 13.7387C54.619 13.6253 54.836 13.4653 55.0155 13.2677C55.195 13.0702 55.3338 12.8391 55.4238 12.5877C55.5133 12.3363 55.553 12.0696 55.5395 11.803Z" fill="#3260E7"/>
<path d="M61.0566 15.6782H58.8906V4.16638H61.0566V15.6782Z" fill="#3260E7"/>
<path d="M63.0082 5.17164C63.0039 4.99793 63.034 4.82505 63.0973 4.66322C63.1606 4.50143 63.2558 4.35392 63.3772 4.22945C63.4986 4.10499 63.6436 4.00607 63.8034 3.93852C63.9637 3.87098 64.1357 3.83618 64.3095 3.83618C64.4833 3.83618 64.6554 3.87098 64.8157 3.93852C64.9755 4.00607 65.1205 4.10499 65.2419 4.22945C65.3633 4.35392 65.4585 4.50143 65.5218 4.66322C65.5851 4.82505 65.6152 4.99793 65.6109 5.17164C65.6109 5.51675 65.4737 5.84776 65.2296 6.09182C64.9855 6.33584 64.6545 6.47295 64.3095 6.47295C63.9646 6.47295 63.6336 6.33584 63.3895 6.09182C63.1453 5.84776 63.0082 5.51675 63.0082 5.17164ZM65.4078 7.91138V15.6782H63.2419V7.91138H65.4078Z" fill="#3260E7"/>
<path d="M73.2756 15.565C72.6341 15.8078 71.9529 15.9287 71.2669 15.9214C69.4595 15.9214 68.2752 14.5921 68.2752 12.5816V9.80871H66.7031V7.91133H68.2752V5.13928H70.4254V7.91133H73.121V9.80828H70.4254V12.565C70.4071 12.7403 70.4285 12.9175 70.4878 13.0833C70.5477 13.2492 70.6442 13.3993 70.7704 13.5225C70.8966 13.6457 71.0485 13.7388 71.2158 13.7947C71.383 13.8506 71.5608 13.8679 71.7354 13.8454C72.1634 13.8295 72.5874 13.7587 72.997 13.6349L73.2756 15.565Z" fill="#3260E7"/>
<path d="M81.9709 15.6781H79.805V15.1266C79.2133 15.6409 78.4548 15.9226 77.6709 15.9192C75.7059 15.9192 74.3984 14.4436 74.3984 12.1904V7.91089H76.5644V11.9808C76.5644 13.2131 77.157 13.8786 78.1696 13.8786C78.4976 13.8484 78.8146 13.7453 79.0976 13.577C79.381 13.4087 79.6229 13.1794 79.8059 12.9056V7.91133H81.9718L81.9709 15.6781Z" fill="#3260E7"/>
<path d="M91.165 15.6786H88.999V15.2249C88.3715 15.6406 87.6327 15.8554 86.8803 15.8406C84.8231 15.8406 83.1562 14.0734 83.1562 11.7873C83.1562 9.53363 84.8231 7.75022 86.8803 7.75022C87.6327 7.73538 88.372 7.95018 88.9995 8.36595V4.16638H91.1654L91.165 15.6786ZM88.999 13.0363V10.5542C88.8025 10.2709 88.5388 10.041 88.2314 9.88525C87.9239 9.72948 87.5825 9.65276 87.2379 9.66201C86.9707 9.67232 86.7087 9.73573 86.4663 9.84852C86.2239 9.96132 86.0065 10.1212 85.8266 10.319C85.6466 10.5167 85.5082 10.7482 85.4187 11.0001C85.3292 11.252 85.2912 11.5192 85.306 11.786C85.306 12.9376 86.1012 13.9432 87.2379 13.9432C87.5842 13.9529 87.9274 13.8748 88.2353 13.7161C88.5432 13.5574 88.806 13.3238 88.999 13.0363Z" fill="#3260E7"/>
<path d="M99.9566 12.3712H94.4544C94.5055 12.8385 94.7352 13.2679 95.0954 13.57C95.4557 13.8721 95.9186 14.0235 96.3876 13.9926C96.6312 14.019 96.8771 13.9786 97.0994 13.8757C97.3216 13.7729 97.5116 13.6115 97.6491 13.4088H99.909C99.5037 14.9005 98.1015 15.9219 96.3404 15.9219C93.9408 15.9219 92.3203 14.1228 92.3203 11.804C92.3203 9.40224 93.9256 7.66687 96.2788 7.66687C98.4129 7.66687 100.003 9.23892 100.003 11.6407C100.006 11.8855 99.9906 12.1302 99.9561 12.3725L99.9566 12.3712ZM94.471 11.0411H97.8531C97.7273 10.0686 97.1666 9.53368 96.2941 9.53368C95.8574 9.51517 95.4299 9.65897 95.0932 9.93735C94.7566 10.2157 94.5347 10.6089 94.471 11.0411Z" fill="#3260E7"/>
</g>
<defs>
<clipPath id="clip0_1_3559">
<rect width="100" height="21.8341" fill="white"/>
</clipPath>
</defs>
</svg>

<svg xmlns="http://www.w3.org/2000/svg" width="290.909" height="64" fill="none" viewBox="0 0 100 22"><g fill="#3260E7" clip-path="url(#a)"><path d="M9.181 4.882a.25.25 0 0 0-.196-.122.282.282 0 0 0-.15.053c-.555.452-1.314 2.374-1.937 4.905l.551.007c1.088.013 2.211.026 3.322.044a51.977 51.977 0 0 0-.823-2.955 9.321 9.321 0 0 0-.767-1.932Z"/><path d="M10.42 0C4.665 0 0 4.854 0 10.842s4.665 10.841 10.42 10.841c5.754 0 10.42-4.854 10.42-10.841C20.84 4.855 16.173 0 10.42 0Zm7.49 11.038-.003.003-.034.026-.011.009-.025.015a.53.53 0 0 1-.279.08H12.62c.04.17.084.363.131.573.27 1.216.989 4.447 1.752 4.447h.04c.596 0 .9-.897 1.567-2.862l.008-.025c.108-.315.228-.671.36-1.048l.033-.096a.237.237 0 0 1 .262-.153.245.245 0 0 1 .186.311l-.028.097c-.07.234-.143.553-.229.921-.397 1.715-.998 4.304-2.539 4.304h-.011c-.995-.008-1.59-1.664-1.845-2.371-.476-1.322-.838-2.732-1.183-4.096H6.582l-.943 3.139-.015-.012a.47.47 0 0 1-.788.03.498.498 0 0 1-.096-.295v-.017l.057-.355a54.29 54.29 0 0 1 .465-2.492H3.347l-.007-.007a.759.759 0 0 1-.024-1.485c.074-.008.149-.011.224-.01h.093c.608.011 1.256.021 1.96.03 1-4.233 2.162-6.385 3.45-6.389 1.38 0 2.404 3.271 3.223 6.47l.004.014c1.685.035 3.48.087 5.225.218l.073.007c.028.001.056.003.083.008h.024a.564.564 0 0 1 .428.428.589.589 0 0 1-.193.583ZM26.624 13.554l-.826 2.124h-2.4l4.566-11.092h2.12l4.55 11.092h-2.386l-.826-2.124h-4.798Zm2.383-6.161-1.558 4.038h3.147l-1.59-4.038ZM48.154 11.415v4.263h-2.166v-4.07c0-1.232-.576-1.897-1.59-1.897a1.7 1.7 0 0 0-1.402.86c.037.28.057.561.061.843v4.264h-2.164v-4.07c0-1.232-.577-1.897-1.605-1.897a1.722 1.722 0 0 0-1.325.873v5.092h-2.166V7.912h2.166v.47a2.371 2.371 0 0 1 1.84-.715 3.034 3.034 0 0 1 2.386 1.102A3.53 3.53 0 0 1 44.9 7.667c1.82 0 3.255 1.477 3.255 3.748ZM57.674 11.803c0 2.254-1.652 4.037-3.71 4.037a3.703 3.703 0 0 1-2.118-.616v4.2H49.68V7.911h2.166v.454a3.703 3.703 0 0 1 2.119-.615c2.058 0 3.709 1.767 3.709 4.053Zm-2.135 0a2.015 2.015 0 0 0-3.693-1.248v2.481a2.076 2.076 0 0 0 1.761.892 2.025 2.025 0 0 0 1.932-2.125ZM61.057 15.678H58.89V4.166h2.166v11.512ZM63.008 5.172a1.307 1.307 0 0 1 .795-1.233 1.303 1.303 0 0 1 1.808 1.233 1.301 1.301 0 0 1-2.603 0Zm2.4 2.74v7.766h-2.166V7.911h2.166ZM73.276 15.565a5.509 5.509 0 0 1-2.01.356c-1.806 0-2.99-1.329-2.99-3.34V9.81h-1.573V7.91h1.572V5.14h2.15v2.772h2.696v1.897h-2.696v2.757a1.177 1.177 0 0 0 .345.958 1.167 1.167 0 0 0 .965.322 5.003 5.003 0 0 0 1.262-.21l.279 1.93ZM81.97 15.678h-2.165v-.551a3.232 3.232 0 0 1-2.134.792c-1.965 0-3.273-1.475-3.273-3.729V7.91h2.166v4.07c0 1.233.593 1.899 1.606 1.899a2.212 2.212 0 0 0 1.636-.973V7.91h2.166l-.001 7.767ZM91.165 15.679h-2.166v-.454a3.704 3.704 0 0 1-2.119.616c-2.057 0-3.724-1.768-3.724-4.054 0-2.253 1.667-4.037 3.724-4.037.753-.015 1.492.2 2.12.616v-4.2h2.165V15.68Zm-2.166-2.643v-2.482a2.076 2.076 0 0 0-1.761-.892 2.012 2.012 0 0 0-1.932 2.124c0 1.152.795 2.157 1.932 2.157a2.052 2.052 0 0 0 1.761-.907ZM99.957 12.371h-5.503a1.823 1.823 0 0 0 1.934 1.622 1.348 1.348 0 0 0 1.261-.584h2.26c-.405 1.491-1.808 2.513-3.569 2.513-2.4 0-4.02-1.8-4.02-4.118 0-2.402 1.606-4.137 3.959-4.137 2.134 0 3.724 1.572 3.724 3.974.003.245-.012.49-.047.732v-.002Zm-5.486-1.33h3.382c-.126-.972-.686-1.507-1.559-1.507a1.767 1.767 0 0 0-1.823 1.507Z"/></g><defs><clipPath id="a"><path fill="#fff" d="M0 0h100v21.834H0z"/></clipPath></defs></svg>
